papirus/32x32/apps/subsonic.svg

<?xml version="1.0" encoding="UTF-8" standalone="no"?>
<!-- Created with Inkscape (http://www.inkscape.org/) -->

<svg
   xmlns:dc="http://purl.org/dc/elements/1.1/"
   xmlns:cc="http://creativecommons.org/ns#"
   xmlns:rdf="http://www.w3.org/1999/02/22-rdf-syntax-ns#"
   xmlns:svg="http://www.w3.org/2000/svg"
   xmlns="http://www.w3.org/2000/svg"
   xmlns:xlink="http://www.w3.org/1999/xlink"
   xmlns:sodipodi="http://sodipodi.sourceforge.net/DTD/sodipodi-0.dtd"
   xmlns:inkscape="http://www.inkscape.org/namespaces/inkscape"
   width="32"
   height="32"
   viewBox="0 0 32 32.000001"
   id="svg5470"
   version="1.1"
   inkscape:version="0.91 r13725"
   sodipodi:docname="subsonic.svg">
  <defs
     id="defs5472">
    <linearGradient
       inkscape:collect="always"
       id="linearGradient4201">
      <stop
         id="stop4205"
         offset="0"
         style="stop-color:#000000;stop-opacity:0;" />
      <stop
         id="stop4203"
         offset="1"
         style="stop-color:#000000;stop-opacity:1;" />
    </linearGradient>
    <linearGradient
       inkscape:collect="always"
       xlink:href="#linearGradient4201"
       id="linearGradient4207"
       x1="2"
       y1="1038.1122"
       x2="8"
       y2="1038.1122"
       gradientUnits="userSpaceOnUse" />
  </defs>
  <sodipodi:namedview
     id="base"
     pagecolor="#ffffff"
     bordercolor="#666666"
     borderopacity="1.0"
     inkscape:pageopacity="0.0"
     inkscape:pageshadow="2"
     inkscape:zoom="1"
     inkscape:cx="13.437124"
     inkscape:cy="24.251716"
     inkscape:document-units="px"
     inkscape:current-layer="layer1"
     showgrid="false"
     units="px"
     inkscape:window-width="1600"
     inkscape:window-height="847"
     inkscape:window-x="0"
     inkscape:window-y="0"
     inkscape:window-maximized="1">
    <inkscape:grid
       type="xygrid"
       id="grid6095" />
  </sodipodi:namedview>
  <metadata
     id="metadata5475">
    <rdf:RDF>
      <cc:Work
         rdf:about="">
        <dc:format>image/svg+xml</dc:format>
        <dc:type
           rdf:resource="http://purl.org/dc/dcmitype/StillImage" />
        <dc:title></dc:title>
      </cc:Work>
    </rdf:RDF>
  </metadata>
  <g
     inkscape:label="Layer 1"
     inkscape:groupmode="layer"
     id="layer1"
     transform="translate(0,-1020.3622)">
    <g
       id="g6228"
       transform="matrix(0.66666667,0,0,0.8,-1.3333334,215.87245)">
      <rect
         ry="1.7465838"
         rx="1.4059999"
         y="1014.3622"
         x="14"
         height="10"
         width="3"
         id="rect6068"
         style="opacity:1;fill:#41b941;fill-opacity:1;stroke:none;stroke-width:1;stroke-linecap:round;stroke-linejoin:round;stroke-miterlimit:4;stroke-dasharray:none;stroke-opacity:1" />
      <path
         id="rect6223"
         transform="translate(0,1004.3622)"
         d="M 15.40625,10 C 14.627326,10 14,10.778486 14,11.746094 l 0,1 C 14,11.778486 14.627326,11 15.40625,11 l 0.1875,0 C 16.372674,11 17,11.778486 17,12.746094 l 0,-1 C 17,10.778486 16.372674,10 15.59375,10 l -0.1875,0 z"
         style="opacity:0.2;fill:#ffffff;fill-opacity:1;stroke:none;stroke-width:1;stroke-linecap:round;stroke-linejoin:round;stroke-miterlimit:4;stroke-dasharray:none;stroke-opacity:1"
         inkscape:connector-curvature="0" />
    </g>
    <path
       style="opacity:1;fill:#ffca1d;fill-opacity:1;stroke:none;stroke-width:1;stroke-linecap:round;stroke-linejoin:round;stroke-miterlimit:4;stroke-dasharray:none;stroke-opacity:1"
       d="m 14.6,1027.3622 c -0.7756,0 -1.6,0.6175 -1.6,1.3846 l 0,1.6168 c -2.597684,0.8209 -4.3,3.114 -5,4.4986 -0.7,-1.3846 -5,-2 -5,-2 l 0,3.5 -1,0 0,4 1,0 0,3 c -0.027344,0 4.3,-0.6154 5,-2 0.7,1.3846 4.5,4 10.1,4 5.6,0 11.9,-3.0272 11.9,-7.6154 -0.0061,-3.2607 -2.743764,-6.0433 -7,-7.3859 l 0,-1.6141 c 0,-0.7671 -0.6244,-1.3846 -1.4,-1.3846 z"
       id="path5454"
       inkscape:connector-curvature="0"
       sodipodi:nodetypes="ssccccccccccccsss" />
    <circle
       r="2"
       cy="1038.3622"
       cx="18"
       id="circle4183"
       style="opacity:0.2;fill:#000000;fill-opacity:1;stroke:none;stroke-width:1;stroke-linecap:round;stroke-linejoin:round;stroke-miterlimit:4;stroke-dasharray:none;stroke-opacity:1" />
    <circle
       style="opacity:1;fill:#ffffff;fill-opacity:1;stroke:none;stroke-width:1;stroke-linecap:round;stroke-linejoin:round;stroke-miterlimit:4;stroke-dasharray:none;stroke-opacity:1"
       id="path6070"
       cx="18"
       cy="1037.3622"
       r="2" />
    <circle
       style="opacity:0.2;fill:#000000;fill-opacity:1;stroke:none;stroke-width:1;stroke-linecap:round;stroke-linejoin:round;stroke-miterlimit:4;stroke-dasharray:none;stroke-opacity:1"
       id="circle4185"
       cx="23.000002"
       cy="1038.3622"
       r="2" />
    <circle
       r="2"
       cy="1037.3622"
       cx="23.000002"
       id="circle4179"
       style="opacity:1;fill:#ffffff;fill-opacity:1;stroke:none;stroke-width:1;stroke-linecap:round;stroke-linejoin:round;stroke-miterlimit:4;stroke-dasharray:none;stroke-opacity:1" />
    <circle
       style="opacity:0.2;fill:#000000;fill-opacity:1;stroke:none;stroke-width:1;stroke-linecap:round;stroke-linejoin:round;stroke-miterlimit:4;stroke-dasharray:none;stroke-opacity:1"
       id="circle4187"
       cx="12.999993"
       cy="1038.3622"
       r="2" />
    <circle
       r="2"
       cy="1037.3622"
       cx="12.999993"
       id="circle4181"
       style="opacity:1;fill:#ffffff;fill-opacity:1;stroke:none;stroke-width:1;stroke-linecap:round;stroke-linejoin:round;stroke-miterlimit:4;stroke-dasharray:none;stroke-opacity:1" />
    <path
       style="opacity:0.2;fill:#ffffff;fill-opacity:1;stroke:none;stroke-width:1;stroke-linecap:round;stroke-linejoin:round;stroke-miterlimit:4;stroke-dasharray:none;stroke-opacity:1"
       d="M 14.599609,7 C 13.824009,7 13,7.6176656 13,8.3847656 l 0,1 C 13,8.6176656 13.824009,8 14.599609,8 l 7,0 C 22.375209,8 23,8.6176656 23,9.3847656 l 0,-1 C 23,7.6176656 22.375209,7 21.599609,7 Z M 23,9.9980469 23,10.998047 c 3.989368,1.258418 6.644486,3.782783 6.966797,6.779297 C 29.977326,17.646313 30,17.518485 30,17.384766 29.9939,14.124066 27.256236,11.340647 23,9.9980469 Z m -10,0.00391 C 10.402316,10.822853 8.7,13.1154 8,14.5 7.3,13.1154 3,12.5 3,12.5 l 0,1 c 0,0 4.3,0.6154 5,2 0.7,-1.3846 2.402316,-3.677147 5,-4.498047 z"
       transform="translate(0,1020.3622)"
       id="path4189"
       inkscape:connector-curvature="0"
       sodipodi:nodetypes="sscsscssscccccccccccc" />
    <path
       style="opacity:0.3;fill:#000000;fill-opacity:1;stroke:none;stroke-width:1;stroke-linecap:round;stroke-linejoin:round;stroke-miterlimit:4;stroke-dasharray:none;stroke-opacity:1"
       d="M 29.966797,16.779297 C 29.614403,21.143137 23.535596,24 18.099609,24 12.499609,24 8.7,21.3846 8,20 7.3,21.3846 2.972656,22 3,22 l 0,1 c -0.027344,0 4.3,-0.6154 5,-2 0.7,1.3846 4.499609,4 10.099609,4 C 23.699609,25 30,21.972966 30,17.384766 c -3.81e-4,-0.203794 -0.01178,-0.405645 -0.0332,-0.605469 z"
       transform="translate(0,1020.3622)"
       id="path4194"
       inkscape:connector-curvature="0"
       sodipodi:nodetypes="csccccscc" />
    <path
       sodipodi:nodetypes="ccccccccc"
       inkscape:connector-curvature="0"
       id="path4199"
       d="m 8,1034.8622 c -0.7,-1.3846 -5,-2 -5,-2 l 0,3.5 -1,0 0,4 1,0 0,3 c -0.027344,0 4.3,-0.6154 5,-2 z"
       style="opacity:0.1;fill:url(#linearGradient4207);fill-opacity:1;stroke:none;stroke-width:1;stroke-linecap:round;stroke-linejoin:round;stroke-miterlimit:4;stroke-dasharray:none;stroke-opacity:1" />
  </g>
</svg>

<?xml version="1.0" encoding="UTF-8" standalone="no"?>
<svg id="svg5470" xmlns:rdf="http://www.w3.org/1999/02/22-rdf-syntax-ns#" xmlns="http://www.w3.org/2000/svg" viewBox="0 0 32 32.000001" height="32" width="32" version="1.1" xmlns:cc="http://creativecommons.org/ns#" xmlns:xlink="http://www.w3.org/1999/xlink" xmlns:dc="http://purl.org/dc/elements/1.1/">
 <defs id="defs5472">
  <linearGradient id="linearGradient4207" y2="1038.1" gradientUnits="userSpaceOnUse" y1="1038.1" x2="8" x1="2">
   <stop id="stop4205" stop-opacity="0" offset="0"/>
   <stop id="stop4203" offset="1"/>
  </linearGradient>
 </defs>
 <metadata id="metadata5475">
  <rdf:RDF>
   <cc:Work rdf:about="">
    <dc:format>image/svg+xml</dc:format>
    <dc:type rdf:resource="http://purl.org/dc/dcmitype/StillImage"/>
    <dc:title/>
   </cc:Work>
  </rdf:RDF>
 </metadata>
 <g id="layer1" transform="translate(0 -1020.4)">
  <g id="g6228" transform="matrix(.66667 0 0 .8 -1.3333 215.87)">
   <rect id="rect6068" rx="1.406" ry="1.7466" height="10" width="3" y="1014.4" x="14" fill="#41b941"/>
   <path id="rect6223" opacity=".2" d="m15.406 10c-0.779 0-1.406 0.778-1.406 1.746v1c0-0.968 0.627-1.746 1.406-1.746h0.1875c0.779 0 1.406 0.778 1.406 1.746v-1c0-0.968-0.627-1.746-1.406-1.746h-0.1875z" transform="translate(0 1004.4)" fill="#fff"/>
  </g>
  <path id="path5454" d="m14.6 1027.4c-0.7756 0-1.6 0.6175-1.6 1.3846v1.6168c-2.5977 0.8209-4.3 3.114-5 4.4986-0.7-1.3846-5-2-5-2v3.5h-1v4h1v3c-0.027344 0 4.3-0.6154 5-2 0.7 1.3846 4.5 4 10.1 4s11.9-3.0272 11.9-7.6154c-0.0061-3.2607-2.7438-6.0433-7-7.3859v-1.6141c0-0.7671-0.6244-1.3846-1.4-1.3846z" fill="#ffca1d"/>
  <circle id="circle4183" opacity=".2" cx="18" cy="1038.4" r="2"/>
  <circle id="path6070" cy="1037.4" cx="18" r="2" fill="#fff"/>
  <circle id="circle4185" opacity=".2" cy="1038.4" cx="23" r="2"/>
  <circle id="circle4179" cx="23" cy="1037.4" r="2" fill="#fff"/>
  <circle id="circle4187" opacity=".2" cy="1038.4" cx="13" r="2"/>
  <circle id="circle4181" cx="13" cy="1037.4" r="2" fill="#fff"/>
  <path id="path4189" opacity=".2" d="m14.6 7c-0.776 0-1.6 0.6177-1.6 1.3848v1c0-0.7671 0.824-1.3848 1.6-1.3848h7c0.775 0 1.4 0.6177 1.4 1.3848v-1c0-0.7671-0.625-1.3848-1.4-1.3848zm8.4 2.998v1c3.9894 1.2584 6.6445 3.7828 6.9668 6.7793 0.01-0.131 0.033-0.259 0.033-0.392-0.006-3.261-2.744-6.044-7-7.387zm-10 0.00391c-2.598 0.821-4.3 3.113-5 4.498-0.7-1.385-5-2-5-2v1s4.3 0.6154 5 2c0.7-1.3846 2.4023-3.6771 5-4.498z" transform="translate(0 1020.4)" fill="#fff"/>
  <path id="path4194" opacity=".2" d="m29.967 1038.1c-0.35239 4.3638-6.4312 7.2207-11.867 7.2207-5.6 0-9.3996-2.6154-10.1-4-0.7 1.3846-5.0273 2-5 2v1c-0.027344 0 4.3-0.6154 5-2 0.7 1.3846 4.4996 4 10.1 4 5.6 0 11.9-3.027 11.9-7.6152-0.000381-0.2038-0.01178-0.4057-0.0332-0.6055z"/>
  <path id="path4199" opacity=".1" d="m8 1034.9c-0.7-1.3846-5-2-5-2v3.5h-1v4h1v3c-0.027344 0 4.3-0.6154 5-2z" fill="url(#linearGradient4207)"/>
 </g>
</svg>
